!!!OTL: Soldatenlied (3-34), S. 109
!!!id: P1006
**kern
*clefG2
*k[b-e-a-]
*E-:
{4ee-
=1
4b-
4g
8b-
8b-
=2
8a-
8g
4f}
=3
{8.b-
16a-
=4
4g
4e-
4g
=5
2f}
=6
{4B-
=7
4e-
4e-
8f
8f
=8
8g
8a-
4b-}
=9
{8.cc
16cc
=10
4b-
4a-
8f
8g
=11
2e-}
==
*-
!!!minrhy: 16
!!!meters: 3/4 ]  ZZ[4
!!!cut: Soldatenlied (3-34), S. 109
!!!reg: Lothringen
!!!trd: PINCK, Louis: Verklingende Weisen, Bd3, Metz 1933
!!!rhy1: X__  X__X__X_X_  X_X_X__
!!!rhy2: X_.X  X__X__X__  X___
!!!key: P1006  16 Eb 3/4 ]  ZZ[4
!!!mod: SECHSTONSKALA DUR ?]  AMBITUS[11
!!!kad: 2251
!!!akz: 54_32_13_51_
!!!fot: 'a__as"b__c__
!!!for: 'a__b__a__aw_
!!!fok: '\__\__/__\__
!! PHRAS[AUFTAKTIG]
!!!fkt: Soldatenlied
!! LOTH VKL
!! PR[15] 2K[0] 2G[13] 3K[9] 3G[6] 4A[4] 4Ü[0] 5A[2] 6K[0] 6G[0]
!! 7K[0] 7G[0] 8A[0] MEHR[0] SI[34] ABS[47] SR[13] SP[21]
!! ST[26] 2k[11] 2g[36] 3k[2] 3g[0] 4d[0] 4ü[0] 5d[2] 6k[0] 6g[0]
!! 7k[0] 7g[0] 8d[0] mehr[0] si[51] dm[-17] sr[47] sp[4]
!! 1F[38] 2F[36] 3F[20] 4F[0] LF[0] 2P[6] 3P[0] 4P[0] TRI[0] DF[4] AB[50]
!! TF[0] U3K[0] U3[0] U4[0] U4Ü[0] U5[0] U6K[0] U6[0] U7K[0] U7[0]
!! N1[6] N2K[0] N2[6] N3K[0] N3[17] N4[13] N4Ü[0] N5[29] N6K[0] N6[17]
!!!n7k: 0] N7[6] O1[6] O2K[0] O2[0] O3K[0] O3[0] HÖ[0
